Papirus/48x48/apps/otter-browser.svg

<svg xmlns="http://www.w3.org/2000/svg" width="48" height="48" version="1">
 <path style="fill:#3b94f7" d="M 24,4 A 20,20 0 0 0 4,24 20,20 0 0 0 24,44 20,20 0 0 0 44,24 20,20 0 0 0 24,4 Z"/>
 <path style="opacity:0.2" d="M 24,13 A 9,12 0 0 1 33,25 9,12 0 0 1 24,37 9,12 0 0 1 15,25 9,12 0 0 1 24,13 Z"/>
 <path style="fill:#ffffff" d="M 24,12 A 9,12 0 0 1 33,24 9,12 0 0 1 24,36 9,12 0 0 1 15,24 9,12 0 0 1 24,12 Z"/>
 <path style="opacity:0.2;fill:#ffffff" d="M 24,4 C 12.954305,4 4,12.954305 4,24 c 0.00571,0.139405 0.012875,0.278745 0.0215,0.418 C 4.3361793,13.608773 13.185696,5.0073157 23.9995,5 c 10.875938,0.00959 19.750697,8.708433 19.978,19.582 0.01016,-0.193883 0.01749,-0.387904 0.022,-0.582 0,-11.045695 -8.954305,-20 -20,-20 z"/>
 <path style="opacity:0.2;fill:#434343" d="m 4.022,24.418 c -0.00999,0.193885 -0.017158,0.387906 -0.0215,0.582 0,11.045695 8.954305,20 20,20 11.045695,0 20,-8.954305 20,-20 -0.0055,-0.139403 -0.01254,-0.278744 -0.021,-0.418 C 43.664797,35.392002 34.814081,43.993765 23.9995,44 13.123562,43.990412 4.248803,35.291567 4.0215,24.418 Z"/>
</svg>

<svg xmlns="http://www.w3.org/2000/svg" width="48" height="48" version="1">
 <circle fill="#796948" cx="24" cy="24" r="15"/>
 <path fill="#3b94f7" d="m24 4a20 20 0 0 0 -20 20 20 20 0 0 0 20 20 20 20 0 0 0 20 -20 20 20 0 0 0 -20 -20zm0 8a9 12 0 0 1 9 12 9 12 0 0 1 -9 12 9 12 0 0 1 -9 -12 9 12 0 0 1 9 -12z"/>
 <path fill="#fff" opacity=".2" d="m24 4a20 20 0 0 0 -20 20 20 20 0 0 0 0.0215 0.418 20 20 0 0 1 19.978 -19.418 20 20 0 0 1 19.978 19.582 20 20 0 0 0 0.022 -0.582 20 20 0 0 0 -20 -20zm8.984 20.424a9 12 0 0 1 -8.984 11.576 9 12 0 0 1 -8.984 -11.424 9 12 0 0 0 -0.016 0.424 9 12 0 0 0 9 12 9 12 0 0 0 9 -12 9 12 0 0 0 -0.016 -0.576z"/>
 <path fill="#434343" opacity=".2" d="m24 12a9 12 0 0 0 -9 12 9 12 0 0 0 0.01563 0.57617 9 12 0 0 1 8.984 -11.576 9 12 0 0 1 8.984 11.424 9 12 0 0 0 0.016 -0.424 9 12 0 0 0 -9 -12zm-19.978 12.418a20 20 0 0 0 -0.0215 0.582 20 20 0 0 0 20 20 20 20 0 0 0 20 -20 20 20 0 0 0 -0.021 -0.418 20 20 0 0 1 -19.98 19.418 20 20 0 0 1 -19.978 -19.582z"/>
</svg>
